X:22
T:The Scowda that Stung Callum
M:4/4
L:1/8
R:Reel
C:Gris Sanderson
Q:400
N:A couple of years ago there was a plague of poisonous
N:jellyfish around the Hebrides. It was a real problem avoiding
N:them on Gigha. My nephew didn't avoid this one on Arran.
K:Em
E2BA Bdef|b2ea fedB|fBfg e2ed|B2Bd AGFD|
B,EEF GBef|beea fedf|g2g2GABe|1dBAd BGGF:|2dBAd BGG2||
||:G,A,B,E GABd|ezz e- edBd|Azz A- AGEG|Dzz D- DB,A,B,|
G,A,B,E GABe|1gzz g- gedB|ezz e- edBd|Azz A- AGFD:|
|2bz ea fedB|e2e2GABe|dBAd BGGF||
